public/img/svg/target_pin.svg

<?xml version="1.0" standalone="no"?><!-- Generator: Gravit.io --><svg xmlns="http://www.w3.org/2000/svg" xmlns:xlink="http://www.w3.org/1999/xlink" style="isolation:isolate" viewBox="0 0 24 24" width="24" height="24"><defs><clipPath id="_clipPath_1tamEiOz8G2msSY8PqtECHmD8cr9YKgO"><rect width="24" height="24"/></clipPath></defs><g clip-path="url(#_clipPath_1tamEiOz8G2msSY8PqtECHmD8cr9YKgO)"><path d=" M 14 2 C 14 3.104 13.104 4 12 4 C 10.896 4 10 3.104 10 2 C 10 0.896 10.896 0 12 0 C 13.104 0 14 0.896 14 2 Z " fill="rgb(0,0,0)" fill-opacity="0.33"/><path d=" M 9.704 4.296 L 12 2 L 14.296 4.296 C 18.153 5.312 21 8.826 21 13 C 21 17.967 16.967 22 12 22 C 7.033 22 3 17.967 3 13 C 3 8.826 5.847 5.312 9.704 4.296 Z " fill-rule="evenodd" fill="rgb(33,33,33)"/><path d=" M 9.471 6.471 L 11 8 L 13 8 L 14.529 6.471 C 14.283 6.376 14.031 6.294 13.773 6.227 L 13 7 L 12 6 L 11 7 L 10.227 6.227 C 9.969 6.294 9.717 6.376 9.471 6.471 Z  M 11 9 L 9 12 L 15 12 L 13 9 L 11 9 Z  M 9 14 L 15 14 L 15 13 L 9 13 L 9 14 Z  M 12 19 L 15 15 L 9 15 L 12 19 Z  M 10.947 19.921 L 7 14 L 8 18 L 6 16 L 6.247 16.986 C 7.321 18.534 9.004 19.628 10.947 19.921 Z  M 17.753 16.986 L 18 16 L 16 18 L 17 14 L 13.053 19.921 C 14.996 19.628 16.679 18.534 17.753 16.986 Z " fill-rule="evenodd" fill="rgb(255,255,255)"/></g></svg>

<svg xmlns="http://www.w3.org/2000/svg" style="isolation:isolate" width="24" height="24"><defs><clipPath id="a"><path d="M0 0h24v24H0z"/></clipPath></defs><g clip-path="url(#a)"><path d="M14 2a2 2 0 1 1-4 0 2 2 0 0 1 4 0z" fill-opacity=".33"/><path d="M9.7 4.3L12 2l2.3 2.3a9 9 0 1 1-4.6 0z" fill-rule="evenodd" fill="#212121"/><path d="M9.47 6.47L11 8h2l1.53-1.53c-.25-.1-.5-.18-.76-.24L13 7l-1-1-1 1-.77-.77c-.26.06-.51.15-.76.24zM11 9l-2 3h6l-2-3h-2zm-2 5h6v-1H9v1zm3 5l3-4H9l3 4zm-1.05.92L7 14l1 4-2-2 .25.99a7 7 0 0 0 4.7 2.93zm6.8-2.93L18 16l-2 2 1-4-3.95 5.92a7 7 0 0 0 4.7-2.93z" fill-rule="evenodd" fill="#FFF"/></g></svg>
